X:1
T:How the Fire Fell
T:How the Fire Fell
T:Miriam Eulalie Oatman
T:Johnson Oatman, Jr., 1905
T:Public Domain Courtesy of the Cyber Hymnal™
C:Miriam Eulalie Oatman
Z:Public Domain
Z:Courtesy of the Cyber Hymnal™
%%score ( 1 2 ) 3
L:1/8
Q:1/4=105
M:4/4
K:Db
V:1 treble 
V:2 treble 
V:3 bass 
V:1
 D>[DE] | [DF]2 [DF]2 [DF]>[DE] D>[DB] | [DA]4 [DF]2 D>[DE] | [DF]4 [DF]>[DF] [DF]2 | %4
w: 1.~O I|love to tell the bless- èd|sto- ry Since the|Lord sanc- ti- fied|
w: 2.~All my|doubts and fears are gone for-|ev- er Since the|Lord sanc- ti- fied|
w: 3.~To the|world no more my heart is|turn- ing Since the|Lord sanc- ti- fied|
w: 4.~There’s a|crown a- wait- ing me in|Heav- en Since the|Lord sanc- ti- fied|
 [CE]6 D>[DE] | [DF]2 [DF]2 [DF]>[DE] D>[DB] | [DA]4 [DF]2 D>[DE] | [DF]4 [CE]>[CE] [CE]2 | D6 || %9
w: me; For my|soul re- ceived a flood of|glo- ry When the|Lord sanc- ti- fied|me.|
w: me; For His|peace flowed o’er me like a|riv- er When the|Lord sanc- ti- fied|me.|
w: me; For on|me His Spir- it fell with|burn- ing When the|Lord sanc- ti- fied|me.|
w: me; For a|heart made clean to me was|giv- en When the|Lord sanc- ti- fied|me.|
"^Refrain" [DF]>[FA] | [Fd]>[=Ed] [Fd]>[Gd] [Fd]2 [Ac]>[GB] | [FA]4 [DF]2 [FA]>[FA] | %12
w: |||
w: |||
w: |||
w: |||
 ([FA]3 [EG]) [CE]2 [GB]>[GB] | ([GB]3 [FA]) [DF]2 [DF]>[FA] | %14
w: ||
w: ||
w: ||
w: ||
 [Fd]>[=Ed] [Fd]>[Gd] [Fd]2 [Ad]>[GB] | [FA]4 [DF]2 D>[DE] | [DF]4 [CE]>[CE] [CE]2 | [A,D]6 |] %18
w: ||||
w: ||||
w: ||||
w: ||||
V:2
 D3/2 x/ | x6 D3/2 x/ | x6 D3/2 x/ | x8 | x6 D3/2 x/ | x6 D3/2 x/ | x6 D3/2 x/ | x8 | D6 || x2 | %10
 x8 | x8 | x8 | x8 | x8 | x6 D3/2 x/ | x8 | x6 |] %18
V:3
 [D,F,]>[D,G,] | [D,A,]2 [D,A,]2 [D,A,]>[D,G,] [D,F,]>[D,G,] | [D,F,]4 [D,A,]2 [D,F,]>[D,G,] | %3
w: ~ ~|~ ~ ~ ~ ~ ~|~ ~ ~ ~|
 [D,A,]4 [D,A,]>[D,A,] [D,A,]2 | [A,,G,]6 [D,F,]>[D,G,] | %5
w: ~ ~ ~ ~|~ ~ ~|
 [D,A,]2 [D,A,]2 [D,A,]>[D,G,] [D,F,]>[D,G,] | [D,F,]4 [D,A,]2 [B,,=G,]>[B,,G,] | %7
w: ~ ~ ~ ~ ~ ~|~ ~ ~ ~|
 [A,,A,]4 [A,,G,]>[A,,G,] [A,,G,]2 | [D,F,]6 || [D,A,]>[D,D] | %10
w: ~ ~ ~ ~|~|O I|
 [D,A,]>[D,=G,] [D,A,]>[D,B,] [D,A,]2 [D,D]>[D,D] | [D,D]4 [D,A,]2 [D,D]>[D,A,] | %12
w: nev- er shall for- get how the|fire fell, How the|
 [A,,A,]4 [A,,A,]2 [A,,A,]>[A,,C] | [D,D]4 [D,B,]2 [D,A,]>[D,D] | %14
w: fire fell, how the|fire fell. O I|
 [D,A,]>[D,=G,] [D,A,]>[D,B,] [D,A,]2 [D,D]>[D,D] | [D,D]4 [D,A,]2 [B,,=G,]>[__B,,G,] | %16
w: nev- er shall for- get how the|fire fell When the|
 [A,,A,]4 [A,,G,]>[A,,G,] [A,,G,]2 | [D,F,]6 |] %18
w: Lord sanc- ti- fied|me.|

